X:1
T:Danse Macabre (theme)
C:Camille Saint-Saëns
M:3/4
L:1/8
Q:1/4=168
K:Gm
% Eerie waltz — dance of death, Op.40 (A section); E=Eb, B=Bb by key
D2 | D2 G2 D2 | G2 D2 B2 | D2 G2 A2 | B2 c4 |
A2 G2 F2 | G4 D2 | E2 D2 E2 | D6 |
D2 G2 D2 | G2 D2 B2 | D2 G2 A2 | B2 c4 |
A2 G2 F2 | G4 ^F2 | G4 D2 | G6 |]
